public/icon/24/folder.svg

<svg width="24" height="24" viewBox="0 0 24 24" fill="none" xmlns="http://www.w3.org/2000/svg">
<path d="M21 19.0031C21 19.5554 20.5523 20 20 20H4C3.44772 20 3 19.5523 3 19L3.00003 5.5C3.00003 4.67157 3.6716 4 4.50003 4H7L8 5H19.5C20.3284 5 21 5.66912 21 6.49755C21 9.63785 21 16.2861 21 19.0031Z" stroke="#092E24" stroke-width="2" stroke-miterlimit="10" stroke-linecap="round" stroke-linejoin="round"/>
<path d="M4.5 20C3.67157 20 3 19.3284 3 18.5V10.5C3 9.67157 3.67157 9 4.5 9H19.5C20.3284 9 21 9.67157 21 10.5V18.5C21 19.3284 20.3284 20 19.5 20H4.5Z" stroke="#092E24" stroke-width="2" stroke-miterlimit="10" stroke-linecap="round" stroke-linejoin="round"/>
</svg>

<svg width="24" height="24" viewBox="0 0 24 24">
  <g stroke-linecap="round" stroke-linejoin="round" stroke-miterlimit="10" stroke-width="2" class="folder">
    <path d="M21 19.003A.997.997 0 0 1 20 20H4a1 1 0 0 1-1-1V5.5A1.5 1.5 0 0 1 4.5 4H7l1 1h11.5c.828 0 1.5.67 1.5 1.498v12.505Z" class="fill-white stroke-current stroke-2 sl-r"/>
    <path d="M4.5 20A1.5 1.5 0 0 1 3 18.5v-8A1.5 1.5 0 0 1 4.5 9h15a1.5 1.5 0 0 1 1.5 1.5v8a1.5 1.5 0 0 1-1.5 1.5h-15Z" class="fill-white stroke-current stroke-2 sl-r"/>
  </g>
</svg>
